X:1
T:Pretoria, 10.10.10.10 D
T:Pretoria, 10.10.10.10 D
T:Henry Lake Gilmour, 1912
T:Public Domain Courtesy of the Cyber Hymnal™
C:Henry Lake Gilmour, 1912
Z:Public Domain
Z:Courtesy of the Cyber Hymnal™
%%score ( 1 2 ) ( 3 4 )
L:1/8
Q:1/4=100
M:4/4
K:Ab
V:1 treble 
V:2 treble 
V:3 bass 
V:4 bass 
V:1
 [Ec]2 [Ec]>[DB] [CA]2 [CE]2 | [DF][FA][EG][DF] [CE]4 | %2
 [Gd]2 [Fd][Ec] [EB]2 [CA]2 [=DG][DA][DB][Dc] [EB]4 | [Ec]2 [Ec]>[DB] [CA]2 [CA]2 | %4
 [CA][FA][FB][Fc] [Fd]4 | [=B,F]2 [B,G][B,A] [CE][EA][FA][_F_B] | [Ec]2 [EB]2 [EA]4 | %7
 [Gd]2 [Gd]>[Gd] [Gd]3 [Gd] | [Ec][EB][EA][Ac] [Ae]4 | d2 [Bd]>[Fd] [Gd]3 [Gd] | %10
 [Ac][EA][EG][EA] [GB]4 | E2 [EA]>[EB] [Ac]3 [Ac] | [Ac][Ac][EB][Ac] [Ad]4 | %13
 [A=d]2 [Ad][Ad] [Ae][E_d][Ec][FB] | [EA]2 [EG]2 [EA]4 |] %15
V:2
 x8 | x8 | x16 | x8 | x8 | x8 | x8 | x8 | x8 | (GA) x6 | x8 | E2 x6 | x8 | x8 | x8 |] %15
V:3
 [A,,A,]2 [A,,E,]>[A,,E,] [A,,E,]2 [A,,A,]2 | [D,A,][D,A,][D,A,][D,A,] [A,,A,]4 | %2
 [E,B,]2 [E,B,][E,B,] [E,G,]2 [F,A,]2 [B,,A,][B,,A,][B,,A,][B,,A,] [E,G,]4 | %3
 [A,,A,]2 [A,,E,]>[A,,E,] [A,,E,]2 [A,,E,]2 | [F,A,][F,C][D,B,][C,=A,] [B,,B,]4 | %5
 [=D,A,]2 [D,A,][D,A,] [E,A,][C,A,][D,A,][_D,A,] | [E,A,]2 (G,D) [A,,C]4 | %7
 B,2 [G,B,]>[A,B,] B,3 [C,B,] | A,[A,D][A,C][A,E] [A,C]4 | B,2 [G,E]>[A,E] [B,E]3 [E,E] | %10
 [A,E][CE][B,D][A,C] [E,D]4 | [A,C]2 [A,C]>[A,D] [A,E]3 [A,E] | [A,E][A,E][G,E][_G,E] [F,D]4 | %13
 [_F,=B,]2 [F,B,][F,B,] [E,C][E,_B,]A,[D,D] | [E,C]2 [E,B,]2 [A,,C]4 |] %15
V:4
 x8 | x8 | x16 | x8 | x8 | x8 | x2 E,2 x4 | (E,F,) x B,3 x2 | A, x7 | (E,F,) x6 | x8 | x8 | x8 | %13
 x6 A, x | x8 |] %15

